X: 670
T: Etti O Güzel Ahde Vefa
C: Ebûbekir Ağa
O: Turkey
F: http://compmusic.upf.edu/node/140
N: segah--yuruksemai--yuruksemai--etti_o_guzel--ebubekir_aga
N: makam= segah
N: form= yuruksemai
N: usul= yuruksemai = 6/8
M: 6/8
L: 1/16
K: C _1/4B _1/4e ^f 
Q: 1/4=102
%%MIDI tuningsystem comma53
B4g4 g2=f2f2e2 e2d2d4  | a2g2=f2e2 e2d2d2e2 d2c2B2A2  | 
w:  Et ti  o  *  gü *  zel   |  ah *  *  *  de  *  ve *  fa   | 
G4B4 c4d4 d4c2B2  | d2=f2e2d2 d4d2c2 B2^A2B4  | \
w:  *  müj de ler_ ol  |  sun    | 
B4g4 g2=f2f2e2 e2d2d4  | 
w:  Et ti  o  *  gü *  zel   | 
a2g2=f2e2 e2d2d2e2 d2c2B2A2  | G4B4 c4d4 d4c2B2  | \
w:  ah *  *  *  de  *  ve *  fa   |  *  müj de ler_ ol  | 
d2=f2e2d2 d12z4  | 
w:  sun    | 
G4G8^A4 B8  | B4d2c2 B2^A2G4 g4=f2e2  | \
w:  Tir  yel  li  yel   |  li  ye *  lel  *  li  ah   | 
e2d2d2c2 c2B2B2^A2 B2cdc2B2  | 
w:  *  *  müj *  de *  ler_ *  ol  | 
^A4B8B2A2 B8  | B4g4 g2=f2f2e2 e2d2d4  | \
w:  sun   SAZ  |  Et ti  o  *  gü *  zel   | 
a2g2=f2e2 e2d2d2e2 d2c2B2A2  | 
w:  ah *  *  *  de  *  ve *  fa   | 
G4B4 c4d4 d4c2B2  | d2=f2e2d2 d4d2c2 B2^A2B4  | \
w:  *  müj de ler_ ol  |  sun    | 
B4g4 g2=f2f2e2 e2d2d4  | 
w:  Et ti  o  *  gü *  zel   | 
a2g2=f2e2 e2d2d2e2 d2c2B2A2  | G4B4 c4d4 d4c2B2  | \
w:  ah *  *  *  de  *  ve *  fa   |  *  müj de ler_ ol  | 
d2=f2e2d2 d12z4  | 
w:  sun    | 
G4G8^A4 B8  | B4d2c2 B2^A2G4 g4=f2e2  | \
w:  Tir  yel  li  yel   |  li  ye *  lel  *  li  ah   | 
e2d2d2c2 c2B2B2^A2 B2cdc2B2  | 
w:  *  *  müj *  de *  ler_ *  ol  | 
^A4B8B2A2 B8  | B4g4 f4^e4 f8  | f8 g4^a4 b6a2  | \
w:  sun   SAZ  |  Va'd_ ey le di  bir   |  ge ce  ni hâ  | 
^a3gg3f f4^e4 f2gag2f2  | 
w:  nî  *  *  *  ge le cek  | 
^e4f6g2f2e2 d3^cB4  | B4g4 f4^e4 f8  | \
w:  tir   |  Va'd_ ey le di  bir   | 
f8 g4^a4 b6a2  | ^a3gg3f f4^e4 f2gag2f2  | 
w:  ge ce  ni hâ  |  nî  *  *  *  ge le cek  | 
^e4f8f2_1/4e2 f8  | g4g2f2 =e4f4 g8  | \
w:  tir   |  Tir  yel  *  *  li  yel   | 
f4a2g2 f2e2d4 a2g2=f2e2  | 
w:  li  ye  *  lel  *  li  ah   | 
e2d2d2c2 c2B2B2^A2 B2cdc2B2  | ^A4B8B2A2 B8  | \
w:  *  *  yâr  *  ge *  le *  cek  |  tir  SAZ  | 
B4g4 g2=f2f2e2 e2d2d4  | 
w:  Ben  ku lu *  na  *  ey   | 
a2g2=f2e2 e2d2d2e2 d2c2B2A2  | G4B4 c4d4 d4c2B2  | \
w:  mah *  *  *  *  *  li *  kâ   |  *  müj de ler_ ol  | 
d2f2e2d2 d4d2c2 B2^A2B4  | 
w:  sun    | 
B4g4 g2=f2f2e2 e2d2d4  | a2g2=f2e2 e2d2d2e2 d2c2B2A2  | 
w:  Ben  ku lu *  na  *  ey   |  mah *  *  *  *  *  li *  kâ   | 
G4B4 c4d4 d4c2B2  | d2f2e2d2 d12z4  | \
w:  *  müj de ler_ ol  |  sun    | 
G4G8^A4 B8  | B4d2c2 B2^A2G4 g4=f2e2  | 
w:  Tir  yel  li  yel   |  li  ye *  lel  *  li  ah   | 
e2d2d2c2 c2B2B2^A2 B2cdc2B2  | ^A4B8B2A2 B8  | |


